X:1
T:Title
%%score { ( 1 3 ) | ( 2 4 ) }
L:1/8
M:4/2
K:G
V:1 treble nm="Grand Piano"
V:3 treble 
V:2 bass 
V:4 bass 
V:1
 z8 z4 z2[Q:1/4=112] D2 | G3 G A2 B2 c6 B2 | [EA]4 [CB]4 [B,G]4 z2 B2 | d4 c4 B2 A2 [DG]2 [DA]2 | %4
 [DB]4 [^CA]4 A4 z2 D2 | [EA]3 [EA] [EB]2 [Ec]2 [Ed]6 [Ec]2 | [=FB]4 [Dc]4 [CA]4 z2 [Ec]2 | %7
 [Ee]4 [Ed]4 [Ec]2 [CE]2 [CEF]2 [CEG]2 | [CFB]6 [CFA]2 [B,G]4 z2 G2 | G4 G4 A6 A2 | %10
 B2 G2 A2 B2 c2 c2 B2 [DA]2 | [Dd]4 B4 G6 A2 | z8 A8[K:bass] | [Dd]8 [EB]6 [CA]2 | %14
[M:7/4] [B,G]2- [B,G]2- [B,G]2- [B,G]6 z2 |] %15
V:2
 z8 z4 z2 D,2 | [G,B,D]3 [G,B,D] [F,A,D]2 [=F,G,D]2 [E,G,C]6 [D,G,D]2 | %2
 [C,G,]4 [D,F,]4 [G,,G,]4 z2 [G,D]2 | [F,A,D]4 [D,F,D]4 [G,D]2 [D,F,D]2 [B,,G,]2 [A,,F,]2 | %4
 [G,,E,]4 [A,,G,]4 [D,F,D]4 z2 [D,F,]2 | [C,E,]3 [C,A,] [B,,^G,]2 [A,,A,]2 [^G,,B,]6 [A,,A,]2 | %6
 [D,A,]4 [E,^G,]4 [A,,A,]4 z2 [A,,A,]2 | [^G,,B,]4 [E,,^G,]4 [A,,A,]2 A,,2 A,,2 A,,2 | %8
 D,6 D,2 G,,4 z2 [G,B,D]2 | [G,B,D]4 [G,B,D]4 [F,A,D]6 [F,A,D]2 | %10
 [=F,G,D]2 [F,G,B,]2 [F,G,C]2 [F,G,D]2 [E,G,C]2 [E,G,C]2 [D,G,D]2 [C,F,]2 | %11
 [B,,G,]4 [D,F,D]4 [E,G,B,]6 [E,G,B,]2 | z8 [F,D]8 | [B,,G,]8 [C,G,]6 [D,F,]2 | %14
[M:7/4] [G,,G,]2- [G,,G,]2- [G,,G,]2- [G,,G,]6 z2 |] %15
V:3
 x16 | x16 | x16 | x16 | x16 | x16 | x16 | x16 | x16 | x16 | x16 | x16 | %12
 [DB]4 [^CA]4 z4[K:bass] C,4 | x16 |[M:7/4] x14 |] %15
V:4
 x16 | x16 | x16 | x16 | x16 | x16 | x16 | x16 | x16 | x16 | x16 | x16 | [A,,G,]4 [A,,G,]4 D,4 z4 | %13
 x16 |[M:7/4] x14 |] %15

